X:1
T: The Rusty Gulley
R: three-two
M: 3/2
L: 1/8
K: Gmaj
|:G/A/B/c/ dG BG|FA Ac BA|G/A/B/c/ dG BG|DG GB AG:|
|:g2 f2 eg|fd df ed|ce Bd Ac|B (3GGG B AG:|
|:G/A/B/c/ dG BA/G/|FA A c/B/A/ G z/ |G/A/B/c/ dG BA/G/|DG GB AG:|
|:g/f/e/d/ f/e/d/c/ eg|fd df ed|Ae/<c/ Bf/<d/ cg/<e/|B (3ddd Bcd:|